X: 11018
T: Drunken, The
R: reel
M: 4/4
K: Dmajor
|GA|B>E (3EEE BEdE|B>E (3EEE AGFG|A>D (3DDD ADFA|A>D (3DDD ADFA|
B>E (3EEE BEdE|BEBB dcBA|dcde fgfe|dccD EF:|
|:GB|Acec d2cB|Acec ddcB|Acec d2dB|A2FD EF:|

